Angular.Hackathon.ChatBot/apps/ChatBot/src/assets/comments-regular.svg

<svg xmlns="http://www.w3.org/2000/svg" viewBox="0 0 640 512"><!--!Font Awesome Free 6.6.0 by @fontawesome - https://fontawesome.com License - https://fontawesome.com/license/free Copyright 2024 Fonticons, Inc.--><path d="M88.2 309.1c9.8-18.3 6.8-40.8-7.5-55.8C59.4 230.9 48 204 48 176c0-63.5 63.8-128 160-128s160 64.5 160 128s-63.8 128-160 128c-13.1 0-25.8-1.3-37.8-3.6c-10.4-2-21.2-.6-30.7 4.2c-4.1 2.1-8.3 4.1-12.6 6c-16 7.2-32.9 13.5-49.9 18c2.8-4.6 5.4-9.1 7.9-13.6c1.1-1.9 2.2-3.9 3.2-5.9zM208 352c114.9 0 208-78.8 208-176S322.9 0 208 0S0 78.8 0 176c0 41.8 17.2 80.1 45.9 110.3c-.9 1.7-1.9 3.5-2.8 5.1c-10.3 18.4-22.3 36.5-36.6 52.1c-6.6 7-8.3 17.2-4.6 25.9C5.8 378.3 14.4 384 24 384c43 0 86.5-13.3 122.7-29.7c4.8-2.2 9.6-4.5 14.2-6.8c15.1 3 30.9 4.5 47.1 4.5zM432 480c16.2 0 31.9-1.6 47.1-4.5c4.6 2.3 9.4 4.6 14.2 6.8C529.5 498.7 573 512 616 512c9.6 0 18.2-5.7 22-14.5c3.8-8.8 2-19-4.6-25.9c-14.2-15.6-26.2-33.7-36.6-52.1c-.9-1.7-1.9-3.4-2.8-5.1C622.8 384.1 640 345.8 640 304c0-94.4-87.9-171.5-198.2-175.8c4.1 15.2 6.2 31.2 6.2 47.8l0 .6c87.2 6.7 144 67.5 144 127.4c0 28-11.4 54.9-32.7 77.2c-14.3 15-17.3 37.6-7.5 55.8c1.1 2 2.2 4 3.2 5.9c2.5 4.5 5.2 9 7.9 13.6c-17-4.5-33.9-10.7-49.9-18c-4.3-1.9-8.5-3.9-12.6-6c-9.5-4.8-20.3-6.2-30.7-4.2c-12.1 2.4-24.8 3.6-37.8 3.6c-61.7 0-110-26.5-136.8-62.3c-16 5.4-32.8 9.4-50 11.8C279 439.8 350 480 432 480z"/></svg>

<svg width="640" height="512" viewBox="0 0 640 512" fill="none" xmlns="http://www.w3.org/2000/svg">
<g clip-path="url(#clip0_58_2)">
<path d="M88.2 309.1C98 290.8 95 268.3 80.7 253.3C59.4 230.9 48 204 48 176C48 112.5 111.8 48 208 48C304.2 48 368 112.5 368 176C368 239.5 304.2 304 208 304C194.9 304 182.2 302.7 170.2 300.4C159.8 298.4 149 299.8 139.5 304.6C135.4 306.7 131.2 308.7 126.9 310.6C110.9 317.8 94 324.1 77 328.6C79.8 324 82.4 319.5 84.9 315C86 313.1 87.1 311.1 88.1 309.1H88.2ZM208 352C322.9 352 416 273.2 416 176C416 78.8 322.9 0 208 0C93.1 0 1.53203e-05 78.8 1.53203e-05 176C1.53203e-05 217.8 17.2 256.1 45.9 286.3C45 288 44 289.8 43.1 291.4C32.8 309.8 20.8 327.9 6.50002 343.5C-0.0999846 350.5 -1.79998 360.7 1.90002 369.4C5.80002 378.3 14.4 384 24 384C67 384 110.5 370.7 146.7 354.3C151.5 352.1 156.3 349.8 160.9 347.5C176 350.5 191.8 352 208 352ZM432 480C448.2 480 463.9 478.4 479.1 475.5C483.7 477.8 488.5 480.1 493.3 482.3C529.5 498.7 573 512 616 512C625.6 512 634.2 506.3 638 497.5C641.8 488.7 640 478.5 633.4 471.6C619.2 456 607.2 437.9 596.8 419.5C595.9 417.8 594.9 416.1 594 414.4C622.8 384.1 640 345.8 640 304C640 209.6 552.1 132.5 441.8 128.2C445.9 143.4 448 159.4 448 176V176.6C535.2 183.3 592 244.1 592 304C592 332 580.6 358.9 559.3 381.2C545 396.2 542 418.8 551.8 437C552.9 439 554 441 555 442.9C557.5 447.4 560.2 451.9 562.9 456.5C545.9 452 529 445.8 513 438.5C508.7 436.6 504.5 434.6 500.4 432.5C490.9 427.7 480.1 426.3 469.7 428.3C457.6 430.7 444.9 431.9 431.9 431.9C370.2 431.9 321.9 405.4 295.1 369.6C279.1 375 262.3 379 245.1 381.4C279 439.8 350 480 432 480Z" fill="white"/>
</g>
<defs>
<clipPath id="clip0_58_2">
<rect width="640" height="512" fill="white"/>
</clipPath>
</defs>
</svg>
